archcraft-icons-qogir/files/Qogir/scalable/mimetypes/message-rfc822.svg

<svg width="64" height="64" version="1.1" viewBox="0 0 64 64" xmlns="http://www.w3.org/2000/svg">
 <rect y="-.012027" width="64" height="64" rx="0" ry="0" fill="none" opacity=".75"/>
 <path d="m8.9992 1.0016h46.002v59h-45.998v-59z" color="#000000" fill="#04c3f0" overflow="visible" stroke-width="3.7796"/>
 <path d="m8.5003 0.49889 46.999 0.00378v59.997h-46.996v-60.001z" color="#000000" fill="none" overflow="visible" stroke="#0392b4" stroke-linecap="round" stroke-linejoin="round" stroke-width="1.0016"/>
 <path d="m18 19.501v22h28v-22zm1 1 9 9-9 9zm1.414 0h23.17l-11.586 11.586zm24.586 0v18l-9-9zm-16.293 9.707 3.293 3.293 3.293-3.293 9.707 9.707v0.586h-26v-0.586z" color="#000000" color-rendering="auto" fill="#fff" image-rendering="auto" opacity=".9" shape-rendering="auto" solid-color="#000000" style="isolation:auto;mix-blend-mode:normal"/>
</svg>

<svg xmlns="http://www.w3.org/2000/svg" width="64" height="64"><rect width="64" height="64" y="-.012" fill="none" opacity=".75" rx="0" ry="0"/><path fill="#04c3f0" d="M9 1.002H55v59H9.003v-59z" color="#000" overflow="visible"/><path fill="none" stroke="#0392b4" stroke-linecap="round" stroke-linejoin="round" stroke-width="1.002" d="m8.5.499 47 .004V60.5H8.502V.499z" color="#000" overflow="visible"/><path fill="#fff" d="M18 19.501v22h28v-22zm1 1 9 9-9 9zm1.414 0h23.17L31.998 32.087zm24.586 0v18l-9-9zm-16.293 9.707L32 33.501l3.293-3.293L45 39.915v.586H19v-.586z" color="#000" opacity=".9" style="isolation:auto;mix-blend-mode:normal"/></svg>
